X:306
T:Siege Of Buda,The. (p)1689.PLFD.306
M:4/4
L:1/4
Q:1/2=100
S:Playford, Dancing Master,7th Ed,3rd.Supp,1689.
O:England
H:1689.
Z:Chris Partington.
K:C
cGcd|ecce/f/|ggf/e/f/g/|1e2e2:|2e3|
|:c/d/|eedd|c/B/c/d/BB|c/B/c/d/ e/d/c/B/|AAAB/c/|
ddde|d/c/B/A/Gg/f/|ef/e/ d/c/d/e/|c3:|
